public/images/info.svg

<svg fill="none" height="24" viewBox="0 0 24 24" width="24" xmlns="http://www.w3.org/2000/svg"><path d="m12 0c-6.65625 0-12 5.39062-12 12 0 6.6562 5.34375 12 12 12 6.6094 0 12-5.3438 12-12 0-6.60938-5.3906-12-12-12zm0 6c.7969 0 1.5.70312 1.5 1.5 0 .84375-.7031 1.5-1.5 1.5-.8438 0-1.5-.65625-1.5-1.5 0-.79688.6562-1.5 1.5-1.5zm1.875 12h-3.75c-.65625 0-1.125-.4688-1.125-1.125 0-.6094.46875-1.125 1.125-1.125h.75v-3h-.375c-.65625 0-1.125-.4688-1.125-1.125 0-.6094.46875-1.125 1.125-1.125h1.5c.6094 0 1.125.5156 1.125 1.125v4.125h.75c.6094 0 1.125.5156 1.125 1.125 0 .6562-.5156 1.125-1.125 1.125z" fill="#a37a56"/></svg>

<svg width="24" height="24" viewBox="0 0 24 24" fill="none" xmlns="http://www.w3.org/2000/svg">
<path d="M12 0C5.34375 0 0 5.39062 0 12C0 18.6562 5.34375 24 12 24C18.6094 24 24 18.6562 24 12C24 5.39062 18.6094 0 12 0ZM12 6C12.7969 6 13.5 6.70312 13.5 7.5C13.5 8.34375 12.7969 9 12 9C11.1562 9 10.5 8.34375 10.5 7.5C10.5 6.70312 11.1562 6 12 6ZM13.875 18H10.125C9.46875 18 9 17.5312 9 16.875C9 16.2656 9.46875 15.75 10.125 15.75H10.875V12.75H10.5C9.84375 12.75 9.375 12.2812 9.375 11.625C9.375 11.0156 9.84375 10.5 10.5 10.5H12C12.6094 10.5 13.125 11.0156 13.125 11.625V15.75H13.875C14.4844 15.75 15 16.2656 15 16.875C15 17.5312 14.4844 18 13.875 18Z" fill="#A37A56"/>
</svg>
